svg/scale-down.svg

<?xml version="1.0" encoding="UTF-8"?>
<svg xmlns="http://www.w3.org/2000/svg" xmlns:xlink="http://www.w3.org/1999/xlink" width="32" height="32" viewBox="0 0 32 32">
<path fill-rule="nonzero" fill="rgb(25.098041%, 25.098041%, 25.490198%)" fill-opacity="1" d="M 26.722656 0 L 5.757812 0 C 2.84375 0.00390625 0.484375 2.359375 0.480469 5.273438 L 0.480469 13.621094 C 1.148438 13.191406 1.925781 12.960938 2.722656 12.964844 L 14.859375 12.964844 C 17.164062 12.964844 19.03125 14.832031 19.03125 17.136719 L 19.03125 29.277344 C 19.03125 30.070312 18.804688 30.851562 18.375 31.519531 L 26.722656 31.519531 C 29.636719 31.515625 31.996094 29.15625 32 26.246094 L 32 5.273438 C 31.996094 2.359375 29.632812 0.00390625 26.722656 0 M 18.890625 13.074219 L 18.890625 7.675781 L 21.035156 9.820312 L 27.027344 3.828125 L 28.136719 4.9375 L 22.144531 10.933594 L 24.289062 13.078125 Z M 14.863281 14.414062 L 2.722656 14.414062 C 2.335938 14.414062 1.96875 14.496094 1.636719 14.644531 C 0.640625 15.074219 0 16.054688 0 17.136719 L 0 29.277344 C 0 30.78125 1.21875 32 2.722656 32 L 14.863281 32 C 15.414062 32 15.949219 31.832031 16.402344 31.519531 C 16.636719 31.363281 16.839844 31.167969 17.011719 30.945312 C 17.152344 30.769531 17.265625 30.574219 17.355469 30.367188 C 17.507812 30.023438 17.585938 29.652344 17.585938 29.277344 L 17.585938 17.136719 C 17.585938 15.632812 16.367188 14.414062 14.863281 14.414062 M 14.863281 14.414062 "/>
</svg>

<svg role="img" viewBox="0 0 32 32" xmlns="http://www.w3.org/2000/svg"><path d="M26.723 0H5.758A5.28 5.28 0 0 0 .48 5.273v8.348a4.1 4.1 0 0 1 2.243-.656h12.136a4.17 4.17 0 0 1 4.172 4.172v12.14a4.15 4.15 0 0 1-.656 2.243h8.348A5.28 5.28 0 0 0 32 26.246V5.273A5.28 5.28 0 0 0 26.723 0M18.89 13.074V7.676l2.144 2.144 5.992-5.992 1.11 1.11-5.992 5.996 2.144 2.144Zm-4.028 1.34H2.723c-.387 0-.754.082-1.086.23A2.71 2.71 0 0 0 0 17.138v12.14A2.72 2.72 0 0 0 2.723 32h12.14c.551 0 1.086-.168 1.54-.48a2.6 2.6 0 0 0 .609-.575 2.5 2.5 0 0 0 .343-.578 2.7 2.7 0 0 0 .23-1.09v-12.14a2.72 2.72 0 0 0-2.722-2.723m0 0" fill="rgb(25.098041%, 25.098041%, 25.490198%)"/></svg>
